!!!COA: des Prez, Josquin
!!!CDT: ~1450-1521/08/27
!!!COA: Verdelot
!!!ONB: Probably by Verdelot
!!!OTL: Tribulatio et angustia
!!!AGN: Motet
!!!SCT: NJE 18.11
!!!SCA: New Josquin Edition 18.11
!!!voices: 4
**kern	**kern	**kern	**kern
*part4	*part3	*part2	*part1
*staff4	*staff3	*staff2	*staff1
*Ivox	*Ivox	*Ivox	*Ivox
*I"Bassus	*I"Tenor	*I"Altus	*I"Superius
*I'B	*I'T	*I'A	*I'S
*clefF4	*clefGv2	*clefGv2	*clefG2
*k[b-]	*k[b-]	*k[b-]	*k[b-]
*d:	*d:	*d:	*d:
*M2/1	*M2/1	*M2/1	*M2/1
*met(C|)	*met(C|)	*met(C|)	*met(C|)
=	=	=	=
0r	0r	0d	1r
.	.	.	[1a
=3	=3	=3	=3
0r	0r	1d	1a]
.	.	[1c	1a
=4	=4	=4	=4
0r	0r	2c]	1.g
.	.	1e-X	.
.	.	2e-Xi	[2b-
=5	=5	=5	=5
1r	0r	1d	2b-]
.	.	.	2b-
[1D	.	2d	1a
.	.	2d	.
=6	=6	=6	=6
1D]	0A	2d	2a
.	.	2d	2a
1D	.	1f	2a
.	.	.	2a
=7	=7	=7	=7
1.C	1A	2r	1cc
.	.	2c	.
.	[1G	2.e-X	2r
[2E-X	.	.	2g
.	.	8dL	.
.	.	8cJ	.
=8	=8	=8	=8
2E-]	2G]	2.B-	2.b-
2E-Xi	1B-	.	.
.	.	4c	8aL
.	.	.	8gJ
1D	.	2d	2.f
.	2B-	2d	.
.	.	.	4g
=9	=9	=9	=9
2D	1A	1d	2a
2D	.	.	2a
2D	2A	2r	1a
2D	2A	[2d	.
=10	=10	=10	=10
1F	2A	2d]	2r
.	2A	1c	1a
2r	1c	.	.
2C	.	[2e-X	[2g
=11	=11	=11	=11
2.E-Xi	2r	4e-]	2g]
.	.	8dL	.
.	.	8cJ	.
.	2G	2.B-	2.b-
8DL/	.	.	.
8CJ/	.	.	.
2.BB-	2.B-	.	.
.	.	4c	4a
.	.	4d	[2f
4C	8AL	4e-Xi	.
.	8GJ	.	.
=12	=12	=12	=12
2D	2.F	1f	4f]
.	.	.	4g
2D	.	.	4a
.	4G	.	4b-
1D	2A	2r	4a
.	.	.	4g
.	2F	2f	[2a
=13	=13	=13	=13
1E-Xi	1G	2B-	2a]
.	.	2c	1g
1D	1A	1d	.
.	.	.	2f#Xi
=14	=14	=14	=14
2GG	1G	2.B-	2.g
1G	.	.	.
.	.	4c	4a
.	2r	4d	4b-
.	.	4e-Xi	4g
2F	2c	2f	2a
=15	=15	=15	=15
4G	4B-	2e-Xi	2g
4F	4A	.	.
4E-Xi	4G	1d	1b-
4D	4F	.	.
1E-Xi	2G	.	.
.	2G	2c	4a
.	.	.	4g
=16	=16	=16	=16
0D;	0A;	0d;	0f;
=17	=17	=17	=17
0r	0r	0r	1a
.	.	.	2b-
.	.	.	2cc
=18	=18	=18	=18
0r	1r	1d	1dd
.	1A	2e	1cc
.	.	2f	.
=19	=19	=19	=19
1r	2B-	1g	1b-
.	2c	.	.
1D	1d	1f	2.a
.	.	.	4f
=20	=20	=20	=20
2E	1c	1e	2g
2F	.	.	1a
1G	1B-	2.d	.
.	.	.	2g
.	.	4B-	.
=21	=21	=21	=21
1F	1A	2c	1a
.	.	1d	.
1E	1r	.	1r
.	.	2c#Xi	.
=22	=22	=22	=22
[0D	1A	[0d	0r
.	2F	.	.
.	2D	.	.
=23	=23	=23	=23
1D]	1A	0d]	1a
1r	1B-	.	2f
.	.	.	2d
=24	=24	=24	=24
1D	1A	0r	1a
2BB-	1G	.	1b-
2GG	.	.	.
=25	=25	=25	=25
1D	1F	1d	1a
1E-Xi	2r	2B-	1g
.	2G	2G	.
=26	=26	=26	=26
2D	1A	1d	1f
2D	.	.	.
1C	1c	1e-Xi	2r
.	.	.	2g
=27	=27	=27	=27
0r	2F	1d	1a
.	2G	.	.
.	1A	1c	1cc
=28	=28	=28	=28
1r	1B-	2B-	2f
.	.	2G	2g
1D	1A	1d	1a
=29	=29	=29	=29
1GG	2G	2B-	1b-
.	1G	2.d	.
2D	.	.	1a
.	.	4e	.
2D	2F	2f	.
=30	=30	=30	=30
2E-Xi	1G	2B-	2g
2E-Xi	.	2c	1g
1D	1A	1d	.
.	.	.	2f#Xi
=31	=31	=31	=31
0GG	[0G	2.B-	0g
.	.	4G	.
.	.	1G	.
=32	=32	=32	=32
0r	1G]	2r	1r
.	.	1d	.
.	1r	.	2r
.	.	2d	[2a
=33	=33	=33	=33
0r	0r	2d	2a]
.	.	2c	2a
.	.	2d	2a
.	.	2B-	2g
=34	=34	=34	=34
0r	0r	1f	2a
.	.	.	2f
.	.	2f	1cc
.	.	2f	.
=35	=35	=35	=35
0r	0r	1f	2cc
.	.	.	2cc
.	.	2e	2cc
.	.	[2d	[2b-
=36	=36	=36	=36
0r	0r	4d]	2b-]
.	.	4c	.
.	.	4B-	1a
.	.	4A	.
.	.	1B-	.
.	.	.	2g
=37	=37	=37	=37
2r	1r	0A	0a
1D	.	.	.
.	2r	.	.
2D	[2A	.	.
=38	=38	=38	=38
2D	2A]	0r	0r
2C	2A	.	.
2D	2A	.	.
2BB-	2G	.	.
=39	=39	=39	=39
1F	2A	0r	0r
.	2F	.	.
2F	1c	.	.
2F	.	.	.
=40	=40	=40	=40
1F	2c	0r	0r
.	2c	.	.
2E	2c	.	.
[2D	[2B-	.	.
=41	=41	=41	=41
4D]	2B-]	2r	0r
4C	.	.	.
4BB-	1A	2d	.
4AA	.	.	.
1BB-	.	2d	.
.	2G	2d	.
=42	=42	=42	=42
1AA	1A	2c	2r
.	.	2c	2a
1r	1r	4d	2a
.	.	4c	.
.	.	4B-	2a
.	.	4A	.
=43	=43	=43	=43
1r	0r	1B-	2g
.	.	.	2g
2r	.	1A	4a
.	.	.	4g
2D	.	.	4f
.	.	.	4e
=44	=44	=44	=44
2D	1r	2.B-	1f
2D	.	.	.
.	.	8AL/	.
.	.	8B-J/	.
2C	2r	4c	1e
.	.	4B-	.
2C	2A	4A	.
.	.	4G	.
=45	=45	=45	=45
4D	2A	1F	4f
4C	.	.	4e
4BB-	2A	.	4d
4AA	.	.	4c
1BB-	2G	2r	1d
.	2G	4D	.
.	.	4E	.
=46	=46	=46	=46
1AA	4A	4F	1c
.	4G	4G	.
.	4F	2.A	.
.	4E	.	.
1D	1F	.	1d
.	.	4G	.
.	.	4A	.
.	.	4B-	.
=47	=47	=47	=47
1C	1E	0c	1.e
1AA	1A	.	.
.	.	.	[2f
=48	=48	=48	=48
1D	1F	1A	2f]
.	.	.	1d
1GG	1G	1B-	.
.	.	.	[2e
=49	=49	=49	=49
0AA	0E	0A	4e]
.	.	.	4d
.	.	.	4c
.	.	.	4B-
.	.	.	1c
=50	=50	=50	=50
0GG	0G	0B-	0d
=51	=51	=51	=51
0D	0F	0A	[0f
=52	=52	=52	=52
0BB-	0B-	0d	0f]
=53	=53	=53	=53
0E-X	0G	1.B-	0g
.	.	2c	.
=54	=54	=54	=54
1D	1A	1.d	1.f
2r	1B-	.	.
2G	.	2e	2g
=55	=55	=55	=55
2F	2A	1f	2a
2D	1d	.	1b-
1E-Xi	.	1g	.
.	2c	.	4a
.	.	.	4g
=56	=56	=56	=56
1D	0d	2f	1.b-
.	.	2.d	.
2r	.	.	.
.	.	4e	.
2D	.	2f	[2a
=57	=57	=57	=57
1E-Xi	1G	2.B-	4a]
.	.	.	4g
.	.	.	1g
.	.	4c	.
1D	1A	[1dl	.
.	.	.	2f#Xi
=58	=58	=58	=58
0GGl	0Gl	0d]	0gl
==	==	==	==
*-	*-	*-	*-
!!!RDF**kern: l=long note in original notation
!!!system-decoration: s1,s2,s3,s4
!!!RDF**kern: i = editorial accidental
!!!RDF**kern: V = start of tuplet marker
!!!RDF**kern: Z = end of tuplet marker
!!!ENC: Chris Gage 07-28-2014
!!!END: 2020/10/21/
!!!EED: Jesse Rodin
!!!EEV: 2020/10/23/
!!attribution-level@Jos: 4a (the rest [double question mark])
!!!ONB: Translated from MusicXML and edited on 2020/10/23/ by Craig Sapp
!!muse2ps: C^Probably by Verdelot\n@{SCT}^i2I150v85,85,85,150Q16
